example.svg

<?xml version="1.0" encoding="UTF-8"?>
<svg xmlns="http://www.w3.org/2000/svg" xmlns:xlink="http://www.w3.org/1999/xlink"
     width="600" height="600" viewBox="0 -600 600 600">
<defs>
</defs>
<path d="M0,0 L100,-100" stroke="blue" stroke-width="1" fill="red" fill-opacity="0.2" />
<path d="M0,-100 L100,0" stroke="blue" stroke-width="1" fill="red" fill-opacity="0.2" />
<path d="M0,-50.0 L100,-50.0" stroke="red" stroke-width="1" fill="red" fill-opacity="0.2" />
<path d="M0,-100 L100,-100" stroke="red" stroke-width="1" fill="red" fill-opacity="0.2" />
<path d="M0,-100 L100,-200" stroke="blue" stroke-width="1" fill="red" fill-opacity="0.2" />
<path d="M0,-200 L100,-100" stroke="blue" stroke-width="1" fill="red" fill-opacity="0.2" />
<path d="M0,-150.0 L100,-150.0" stroke="red" stroke-width="1" fill="red" fill-opacity="0.2" />
<path d="M0,-200 L100,-200" stroke="red" stroke-width="1" fill="red" fill-opacity="0.2" />
<path d="M0,-200 L100,-300" stroke="blue" stroke-width="1" fill="red" fill-opacity="0.2" />
<path d="M0,-300 L100,-200" stroke="blue" stroke-width="1" fill="red" fill-opacity="0.2" />
<path d="M0,-250.0 L100,-250.0" stroke="red" stroke-width="1" fill="red" fill-opacity="0.2" />
<path d="M0,-300 L100,-300" stroke="red" stroke-width="1" fill="red" fill-opacity="0.2" />
<path d="M0,-300 L100,-400" stroke="blue" stroke-width="1" fill="red" fill-opacity="0.2" />
<path d="M0,-400 L100,-300" stroke="blue" stroke-width="1" fill="red" fill-opacity="0.2" />
<path d="M0,-350.0 L100,-350.0" stroke="red" stroke-width="1" fill="red" fill-opacity="0.2" />
<path d="M0,-400 L100,-400" stroke="red" stroke-width="1" fill="red" fill-opacity="0.2" />
<path d="M0,-400 L100,-500" stroke="blue" stroke-width="1" fill="red" fill-opacity="0.2" />
<path d="M0,-500 L100,-400" stroke="blue" stroke-width="1" fill="red" fill-opacity="0.2" />
<path d="M0,-450.0 L100,-450.0" stroke="red" stroke-width="1" fill="red" fill-opacity="0.2" />
<path d="M0,-500 L100,-500" stroke="red" stroke-width="1" fill="red" fill-opacity="0.2" />
<path d="M0,-500 L100,-600" stroke="blue" stroke-width="1" fill="red" fill-opacity="0.2" />
<path d="M0,-600 L100,-500" stroke="blue" stroke-width="1" fill="red" fill-opacity="0.2" />
<path d="M0,-550.0 L100,-550.0" stroke="red" stroke-width="1" fill="red" fill-opacity="0.2" />
<path d="M0,-600 L100,-600" stroke="red" stroke-width="1" fill="red" fill-opacity="0.2" />
<path d="M100,0 L200,-100" stroke="blue" stroke-width="1" fill="red" fill-opacity="0.2" />
<path d="M100,-100 L200,0" stroke="blue" stroke-width="1" fill="red" fill-opacity="0.2" />
<path d="M100,-50.0 L200,-50.0" stroke="red" stroke-width="1" fill="red" fill-opacity="0.2" />
<path d="M100,-100 L200,-100" stroke="red" stroke-width="1" fill="red" fill-opacity="0.2" />
<path d="M100,-100 L200,-200" stroke="blue" stroke-width="1" fill="red" fill-opacity="0.2" />
<path d="M100,-200 L200,-100" stroke="blue" stroke-width="1" fill="red" fill-opacity="0.2" />
<path d="M100,-150.0 L200,-150.0" stroke="red" stroke-width="1" fill="red" fill-opacity="0.2" />
<path d="M100,-200 L200,-200" stroke="red" stroke-width="1" fill="red" fill-opacity="0.2" />
<path d="M100,-200 L200,-300" stroke="blue" stroke-width="1" fill="red" fill-opacity="0.2" />
<path d="M100,-300 L200,-200" stroke="blue" stroke-width="1" fill="red" fill-opacity="0.2" />
<path d="M100,-250.0 L200,-250.0" stroke="red" stroke-width="1" fill="red" fill-opacity="0.2" />
<path d="M100,-300 L200,-300" stroke="red" stroke-width="1" fill="red" fill-opacity="0.2" />
<path d="M100,-300 L200,-400" stroke="blue" stroke-width="1" fill="red" fill-opacity="0.2" />
<path d="M100,-400 L200,-300" stroke="blue" stroke-width="1" fill="red" fill-opacity="0.2" />
<path d="M100,-350.0 L200,-350.0" stroke="red" stroke-width="1" fill="red" fill-opacity="0.2" />
<path d="M100,-400 L200,-400" stroke="red" stroke-width="1" fill="red" fill-opacity="0.2" />
<path d="M100,-400 L200,-500" stroke="blue" stroke-width="1" fill="red" fill-opacity="0.2" />
<path d="M100,-500 L200,-400" stroke="blue" stroke-width="1" fill="red" fill-opacity="0.2" />
<path d="M100,-450.0 L200,-450.0" stroke="red" stroke-width="1" fill="red" fill-opacity="0.2" />
<path d="M100,-500 L200,-500" stroke="red" stroke-width="1" fill="red" fill-opacity="0.2" />
<path d="M100,-500 L200,-600" stroke="blue" stroke-width="1" fill="red" fill-opacity="0.2" />
<path d="M100,-600 L200,-500" stroke="blue" stroke-width="1" fill="red" fill-opacity="0.2" />
<path d="M100,-550.0 L200,-550.0" stroke="red" stroke-width="1" fill="red" fill-opacity="0.2" />
<path d="M100,-600 L200,-600" stroke="red" stroke-width="1" fill="red" fill-opacity="0.2" />
<path d="M200,0 L300,-100" stroke="blue" stroke-width="1" fill="red" fill-opacity="0.2" />
<path d="M200,-100 L300,0" stroke="blue" stroke-width="1" fill="red" fill-opacity="0.2" />
<path d="M200,-50.0 L300,-50.0" stroke="red" stroke-width="1" fill="red" fill-opacity="0.2" />
<path d="M200,-100 L300,-100" stroke="red" stroke-width="1" fill="red" fill-opacity="0.2" />
<path d="M200,-100 L300,-200" stroke="blue" stroke-width="1" fill="red" fill-opacity="0.2" />
<path d="M200,-200 L300,-100" stroke="blue" stroke-width="1" fill="red" fill-opacity="0.2" />
<path d="M200,-150.0 L300,-150.0" stroke="red" stroke-width="1" fill="red" fill-opacity="0.2" />
<path d="M200,-200 L300,-200" stroke="red" stroke-width="1" fill="red" fill-opacity="0.2" />
<path d="M200,-200 L300,-300" stroke="blue" stroke-width="1" fill="red" fill-opacity="0.2" />
<path d="M200,-300 L300,-200" stroke="blue" stroke-width="1" fill="red" fill-opacity="0.2" />
<path d="M200,-250.0 L300,-250.0" stroke="red" stroke-width="1" fill="red" fill-opacity="0.2" />
<path d="M200,-300 L300,-300" stroke="red" stroke-width="1" fill="red" fill-opacity="0.2" />
<path d="M200,-300 L300,-400" stroke="blue" stroke-width="1" fill="red" fill-opacity="0.2" />
<path d="M200,-400 L300,-300" stroke="blue" stroke-width="1" fill="red" fill-opacity="0.2" />
<path d="M200,-350.0 L300,-350.0" stroke="red" stroke-width="1" fill="red" fill-opacity="0.2" />
<path d="M200,-400 L300,-400" stroke="red" stroke-width="1" fill="red" fill-opacity="0.2" />
<path d="M200,-400 L300,-500" stroke="blue" stroke-width="1" fill="red" fill-opacity="0.2" />
<path d="M200,-500 L300,-400" stroke="blue" stroke-width="1" fill="red" fill-opacity="0.2" />
<path d="M200,-450.0 L300,-450.0" stroke="red" stroke-width="1" fill="red" fill-opacity="0.2" />
<path d="M200,-500 L300,-500" stroke="red" stroke-width="1" fill="red" fill-opacity="0.2" />
<path d="M200,-500 L300,-600" stroke="blue" stroke-width="1" fill="red" fill-opacity="0.2" />
<path d="M200,-600 L300,-500" stroke="blue" stroke-width="1" fill="red" fill-opacity="0.2" />
<path d="M200,-550.0 L300,-550.0" stroke="red" stroke-width="1" fill="red" fill-opacity="0.2" />
<path d="M200,-600 L300,-600" stroke="red" stroke-width="1" fill="red" fill-opacity="0.2" />
<path d="M300,0 L400,-100" stroke="blue" stroke-width="1" fill="red" fill-opacity="0.2" />
<path d="M300,-100 L400,0" stroke="blue" stroke-width="1" fill="red" fill-opacity="0.2" />
<path d="M300,-50.0 L400,-50.0" stroke="red" stroke-width="1" fill="red" fill-opacity="0.2" />
<path d="M300,-100 L400,-100" stroke="red" stroke-width="1" fill="red" fill-opacity="0.2" />
<path d="M300,-100 L400,-200" stroke="blue" stroke-width="1" fill="red" fill-opacity="0.2" />
<path d="M300,-200 L400,-100" stroke="blue" stroke-width="1" fill="red" fill-opacity="0.2" />
<path d="M300,-150.0 L400,-150.0" stroke="red" stroke-width="1" fill="red" fill-opacity="0.2" />
<path d="M300,-200 L400,-200" stroke="red" stroke-width="1" fill="red" fill-opacity="0.2" />
<path d="M300,-200 L400,-300" stroke="blue" stroke-width="1" fill="red" fill-opacity="0.2" />
<path d="M300,-300 L400,-200" stroke="blue" stroke-width="1" fill="red" fill-opacity="0.2" />
<path d="M300,-250.0 L400,-250.0" stroke="red" stroke-width="1" fill="red" fill-opacity="0.2" />
<path d="M300,-300 L400,-300" stroke="red" stroke-width="1" fill="red" fill-opacity="0.2" />
<path d="M300,-300 L400,-400" stroke="blue" stroke-width="1" fill="red" fill-opacity="0.2" />
<path d="M300,-400 L400,-300" stroke="blue" stroke-width="1" fill="red" fill-opacity="0.2" />
<path d="M300,-350.0 L400,-350.0" stroke="red" stroke-width="1" fill="red" fill-opacity="0.2" />
<path d="M300,-400 L400,-400" stroke="red" stroke-width="1" fill="red" fill-opacity="0.2" />
<path d="M300,-400 L400,-500" stroke="blue" stroke-width="1" fill="red" fill-opacity="0.2" />
<path d="M300,-500 L400,-400" stroke="blue" stroke-width="1" fill="red" fill-opacity="0.2" />
<path d="M300,-450.0 L400,-450.0" stroke="red" stroke-width="1" fill="red" fill-opacity="0.2" />
<path d="M300,-500 L400,-500" stroke="red" stroke-width="1" fill="red" fill-opacity="0.2" />
<path d="M300,-500 L400,-600" stroke="blue" stroke-width="1" fill="red" fill-opacity="0.2" />
<path d="M300,-600 L400,-500" stroke="blue" stroke-width="1" fill="red" fill-opacity="0.2" />
<path d="M300,-550.0 L400,-550.0" stroke="red" stroke-width="1" fill="red" fill-opacity="0.2" />
<path d="M300,-600 L400,-600" stroke="red" stroke-width="1" fill="red" fill-opacity="0.2" />
<path d="M400,0 L500,-100" stroke="blue" stroke-width="1" fill="red" fill-opacity="0.2" />
<path d="M400,-100 L500,0" stroke="blue" stroke-width="1" fill="red" fill-opacity="0.2" />
<path d="M400,-50.0 L500,-50.0" stroke="red" stroke-width="1" fill="red" fill-opacity="0.2" />
<path d="M400,-100 L500,-100" stroke="red" stroke-width="1" fill="red" fill-opacity="0.2" />
<path d="M400,-100 L500,-200" stroke="blue" stroke-width="1" fill="red" fill-opacity="0.2" />
<path d="M400,-200 L500,-100" stroke="blue" stroke-width="1" fill="red" fill-opacity="0.2" />
<path d="M400,-150.0 L500,-150.0" stroke="red" stroke-width="1" fill="red" fill-opacity="0.2" />
<path d="M400,-200 L500,-200" stroke="red" stroke-width="1" fill="red" fill-opacity="0.2" />
<path d="M400,-200 L500,-300" stroke="blue" stroke-width="1" fill="red" fill-opacity="0.2" />
<path d="M400,-300 L500,-200" stroke="blue" stroke-width="1" fill="red" fill-opacity="0.2" />
<path d="M400,-250.0 L500,-250.0" stroke="red" stroke-width="1" fill="red" fill-opacity="0.2" />
<path d="M400,-300 L500,-300" stroke="red" stroke-width="1" fill="red" fill-opacity="0.2" />
<path d="M400,-300 L500,-400" stroke="blue" stroke-width="1" fill="red" fill-opacity="0.2" />
<path d="M400,-400 L500,-300" stroke="blue" stroke-width="1" fill="red" fill-opacity="0.2" />
<path d="M400,-350.0 L500,-350.0" stroke="red" stroke-width="1" fill="red" fill-opacity="0.2" />
<path d="M400,-400 L500,-400" stroke="red" stroke-width="1" fill="red" fill-opacity="0.2" />
<path d="M400,-400 L500,-500" stroke="blue" stroke-width="1" fill="red" fill-opacity="0.2" />
<path d="M400,-500 L500,-400" stroke="blue" stroke-width="1" fill="red" fill-opacity="0.2" />
<path d="M400,-450.0 L500,-450.0" stroke="red" stroke-width="1" fill="red" fill-opacity="0.2" />
<path d="M400,-500 L500,-500" stroke="red" stroke-width="1" fill="red" fill-opacity="0.2" />
<path d="M400,-500 L500,-600" stroke="blue" stroke-width="1" fill="red" fill-opacity="0.2" />
<path d="M400,-600 L500,-500" stroke="blue" stroke-width="1" fill="red" fill-opacity="0.2" />
<path d="M400,-550.0 L500,-550.0" stroke="red" stroke-width="1" fill="red" fill-opacity="0.2" />
<path d="M400,-600 L500,-600" stroke="red" stroke-width="1" fill="red" fill-opacity="0.2" />
<path d="M500,0 L600,-100" stroke="blue" stroke-width="1" fill="red" fill-opacity="0.2" />
<path d="M500,-100 L600,0" stroke="blue" stroke-width="1" fill="red" fill-opacity="0.2" />
<path d="M500,-50.0 L600,-50.0" stroke="red" stroke-width="1" fill="red" fill-opacity="0.2" />
<path d="M500,-100 L600,-100" stroke="red" stroke-width="1" fill="red" fill-opacity="0.2" />
<path d="M500,-100 L600,-200" stroke="blue" stroke-width="1" fill="red" fill-opacity="0.2" />
<path d="M500,-200 L600,-100" stroke="blue" stroke-width="1" fill="red" fill-opacity="0.2" />
<path d="M500,-150.0 L600,-150.0" stroke="red" stroke-width="1" fill="red" fill-opacity="0.2" />
<path d="M500,-200 L600,-200" stroke="red" stroke-width="1" fill="red" fill-opacity="0.2" />
<path d="M500,-200 L600,-300" stroke="blue" stroke-width="1" fill="red" fill-opacity="0.2" />
<path d="M500,-300 L600,-200" stroke="blue" stroke-width="1" fill="red" fill-opacity="0.2" />
<path d="M500,-250.0 L600,-250.0" stroke="red" stroke-width="1" fill="red" fill-opacity="0.2" />
<path d="M500,-300 L600,-300" stroke="red" stroke-width="1" fill="red" fill-opacity="0.2" />
<path d="M500,-300 L600,-400" stroke="blue" stroke-width="1" fill="red" fill-opacity="0.2" />
<path d="M500,-400 L600,-300" stroke="blue" stroke-width="1" fill="red" fill-opacity="0.2" />
<path d="M500,-350.0 L600,-350.0" stroke="red" stroke-width="1" fill="red" fill-opacity="0.2" />
<path d="M500,-400 L600,-400" stroke="red" stroke-width="1" fill="red" fill-opacity="0.2" />
<path d="M500,-400 L600,-500" stroke="blue" stroke-width="1" fill="red" fill-opacity="0.2" />
<path d="M500,-500 L600,-400" stroke="blue" stroke-width="1" fill="red" fill-opacity="0.2" />
<path d="M500,-450.0 L600,-450.0" stroke="red" stroke-width="1" fill="red" fill-opacity="0.2" />
<path d="M500,-500 L600,-500" stroke="red" stroke-width="1" fill="red" fill-opacity="0.2" />
<path d="M500,-500 L600,-600" stroke="blue" stroke-width="1" fill="red" fill-opacity="0.2" />
<path d="M500,-600 L600,-500" stroke="blue" stroke-width="1" fill="red" fill-opacity="0.2" />
<path d="M500,-550.0 L600,-550.0" stroke="red" stroke-width="1" fill="red" fill-opacity="0.2" />
<path d="M500,-600 L600,-600" stroke="red" stroke-width="1" fill="red" fill-opacity="0.2" />
</svg>

<svg height="600" viewBox="0 -600 600 600" width="600" xmlns="http://www.w3.org/2000/svg"><g fill="#f00" fill-opacity=".2"><path d="m0 0 100-100" stroke="#00f"/><path d="m0-100 100 100" stroke="#00f"/><path d="m0-50h100" stroke="#f00"/><path d="m0-100h100" stroke="#f00"/><path d="m0-100 100-100" stroke="#00f"/><path d="m0-200 100 100" stroke="#00f"/><path d="m0-150h100" stroke="#f00"/><path d="m0-200h100" stroke="#f00"/><path d="m0-200 100-100" stroke="#00f"/><path d="m0-300 100 100" stroke="#00f"/><path d="m0-250h100" stroke="#f00"/><path d="m0-300h100" stroke="#f00"/><path d="m0-300 100-100" stroke="#00f"/><path d="m0-400 100 100" stroke="#00f"/><path d="m0-350h100" stroke="#f00"/><path d="m0-400h100" stroke="#f00"/><path d="m0-400 100-100" stroke="#00f"/><path d="m0-500 100 100" stroke="#00f"/><path d="m0-450h100" stroke="#f00"/><path d="m0-500h100" stroke="#f00"/><path d="m0-500 100-100" stroke="#00f"/><path d="m0-600 100 100" stroke="#00f"/><path d="m0-550h100" stroke="#f00"/><path d="m0-600h100" stroke="#f00"/><path d="m100 0 100-100" stroke="#00f"/><path d="m100-100 100 100" stroke="#00f"/><path d="m100-50h100" stroke="#f00"/><path d="m100-100h100" stroke="#f00"/><path d="m100-100 100-100" stroke="#00f"/><path d="m100-200 100 100" stroke="#00f"/><path d="m100-150h100" stroke="#f00"/><path d="m100-200h100" stroke="#f00"/><path d="m100-200 100-100" stroke="#00f"/><path d="m100-300 100 100" stroke="#00f"/><path d="m100-250h100" stroke="#f00"/><path d="m100-300h100" stroke="#f00"/><path d="m100-300 100-100" stroke="#00f"/><path d="m100-400 100 100" stroke="#00f"/><path d="m100-350h100" stroke="#f00"/><path d="m100-400h100" stroke="#f00"/><path d="m100-400 100-100" stroke="#00f"/><path d="m100-500 100 100" stroke="#00f"/><path d="m100-450h100" stroke="#f00"/><path d="m100-500h100" stroke="#f00"/><path d="m100-500 100-100" stroke="#00f"/><path d="m100-600 100 100" stroke="#00f"/><path d="m100-550h100" stroke="#f00"/><path d="m100-600h100" stroke="#f00"/><path d="m200 0 100-100" stroke="#00f"/><path d="m200-100 100 100" stroke="#00f"/><path d="m200-50h100" stroke="#f00"/><path d="m200-100h100" stroke="#f00"/><path d="m200-100 100-100" stroke="#00f"/><path d="m200-200 100 100" stroke="#00f"/><path d="m200-150h100" stroke="#f00"/><path d="m200-200h100" stroke="#f00"/><path d="m200-200 100-100" stroke="#00f"/><path d="m200-300 100 100" stroke="#00f"/><path d="m200-250h100" stroke="#f00"/><path d="m200-300h100" stroke="#f00"/><path d="m200-300 100-100" stroke="#00f"/><path d="m200-400 100 100" stroke="#00f"/><path d="m200-350h100" stroke="#f00"/><path d="m200-400h100" stroke="#f00"/><path d="m200-400 100-100" stroke="#00f"/><path d="m200-500 100 100" stroke="#00f"/><path d="m200-450h100" stroke="#f00"/><path d="m200-500h100" stroke="#f00"/><path d="m200-500 100-100" stroke="#00f"/><path d="m200-600 100 100" stroke="#00f"/><path d="m200-550h100" stroke="#f00"/><path d="m200-600h100" stroke="#f00"/><path d="m300 0 100-100" stroke="#00f"/><path d="m300-100 100 100" stroke="#00f"/><path d="m300-50h100" stroke="#f00"/><path d="m300-100h100" stroke="#f00"/><path d="m300-100 100-100" stroke="#00f"/><path d="m300-200 100 100" stroke="#00f"/><path d="m300-150h100" stroke="#f00"/><path d="m300-200h100" stroke="#f00"/><path d="m300-200 100-100" stroke="#00f"/><path d="m300-300 100 100" stroke="#00f"/><path d="m300-250h100" stroke="#f00"/><path d="m300-300h100" stroke="#f00"/><path d="m300-300 100-100" stroke="#00f"/><path d="m300-400 100 100" stroke="#00f"/><path d="m300-350h100" stroke="#f00"/><path d="m300-400h100" stroke="#f00"/><path d="m300-400 100-100" stroke="#00f"/><path d="m300-500 100 100" stroke="#00f"/><path d="m300-450h100" stroke="#f00"/><path d="m300-500h100" stroke="#f00"/><path d="m300-500 100-100" stroke="#00f"/><path d="m300-600 100 100" stroke="#00f"/><path d="m300-550h100" stroke="#f00"/><path d="m300-600h100" stroke="#f00"/><path d="m400 0 100-100" stroke="#00f"/><path d="m400-100 100 100" stroke="#00f"/><path d="m400-50h100" stroke="#f00"/><path d="m400-100h100" stroke="#f00"/><path d="m400-100 100-100" stroke="#00f"/><path d="m400-200 100 100" stroke="#00f"/><path d="m400-150h100" stroke="#f00"/><path d="m400-200h100" stroke="#f00"/><path d="m400-200 100-100" stroke="#00f"/><path d="m400-300 100 100" stroke="#00f"/><path d="m400-250h100" stroke="#f00"/><path d="m400-300h100" stroke="#f00"/><path d="m400-300 100-100" stroke="#00f"/><path d="m400-400 100 100" stroke="#00f"/><path d="m400-350h100" stroke="#f00"/><path d="m400-400h100" stroke="#f00"/><path d="m400-400 100-100" stroke="#00f"/><path d="m400-500 100 100" stroke="#00f"/><path d="m400-450h100" stroke="#f00"/><path d="m400-500h100" stroke="#f00"/><path d="m400-500 100-100" stroke="#00f"/><path d="m400-600 100 100" stroke="#00f"/><path d="m400-550h100" stroke="#f00"/><path d="m400-600h100" stroke="#f00"/><path d="m500 0 100-100" stroke="#00f"/><path d="m500-100 100 100" stroke="#00f"/><path d="m500-50h100" stroke="#f00"/><path d="m500-100h100" stroke="#f00"/><path d="m500-100 100-100" stroke="#00f"/><path d="m500-200 100 100" stroke="#00f"/><path d="m500-150h100" stroke="#f00"/><path d="m500-200h100" stroke="#f00"/><path d="m500-200 100-100" stroke="#00f"/><path d="m500-300 100 100" stroke="#00f"/><path d="m500-250h100" stroke="#f00"/><path d="m500-300h100" stroke="#f00"/><path d="m500-300 100-100" stroke="#00f"/><path d="m500-400 100 100" stroke="#00f"/><path d="m500-350h100" stroke="#f00"/><path d="m500-400h100" stroke="#f00"/><path d="m500-400 100-100" stroke="#00f"/><path d="m500-500 100 100" stroke="#00f"/><path d="m500-450h100" stroke="#f00"/><path d="m500-500h100" stroke="#f00"/><path d="m500-500 100-100" stroke="#00f"/><path d="m500-600 100 100" stroke="#00f"/><g stroke="#f00"><path d="m500-550h100"/><path d="m500-600h100"/></g></g></svg>
